icons/server-16.svg

<svg xmlns="http://www.w3.org/2000/svg" viewBox="0 0 16 16"><path d="M3 4h1v1H3zm2 1h1V4H5zm2 0h1V4H7zm8-3v9h-5v2h3v1H3v-1h6v-2H1V2zm-1 5H2v3h12zm0-1V3H2v3zM4 8H3v1h1zm2 0H5v1h1zm2 0H7v1h1z"/><path fill="none" d="M0 0h16v16H0z"/></svg>

<svg id="icons" xmlns="http://www.w3.org/2000/svg" viewBox="0 0 16 16"><path d="M3,4H4V5H3ZM5,5H6V4H5ZM7,5H8V4H7Zm8-3v9H10v2h3v1H3V13H9V11H1V2ZM14,7H2v3H14Zm0-1V3H2V6ZM4,8H3V9H4ZM6,8H5V9H6ZM8,8H7V9H8Z"/><path fill="none" d="M0 0h16v16H0z"/></svg>
